X: 1312
T: Miss Monaghan   #2
R: reel
O: Ennis
B: O'Neill's 1850 #1312
Z: Trish O'Neil
M: C|
L: 1/8
K: D
|:\
D2(3(FED) FAA2 | (Bc)BA FAAB |\
[1 dedB ABde | fede Tf2e2 :|\
[2 dedB ABdB | AFDF TE2D2 |]
|:\
(fa)ab (af)df | gefd edBc |\
[1 dedB ABde | fede Tf2e2 :|\
[2 dedB ABdB | AFDF TE2D2 |]
|:\
(de)fg abaf | gfed cAA[cG] |\
[1 FAdB cdeg | fdgf e2AA :|\
[2 defd ecdB | AFGE D2z2 |]
